X: 1
T: Elizabeth's Big Coat
T: Effie's Wite Coat; Lassies of Glendale; Poirt Mabou
O: Cape Breton, NS
S: Kenny Fraser
S: https://tunearch.org/wiki/Elizabeth%27s_Big_Coat
M: C|
L: 1/8
K: Amix
   f | edc2 dcBd | cA A/A/A g2fa | edc2 dcBd | egdB A2A :| 
|: B | c2ce dBBd | cAAf     g2fa | c2ce dBBd | egdB A2A :| 
